X:1
T:Paddy Carrey's Jig
R:jig
M:6/8
L:1/8
K:G
D2G GFG | B2G GFG | E2A A2G | ABA GFE | D2G GFG | B2G GFG |
FED DEF | GAB A2G :: B2d c2e | d2e dBG | B2d c2e | dBG A3 |
B2d c2e | d2e dBG | GFE DEF | GAB A2G :: c2A AGA | B2G GFG |
F2G A2B | c2A FED | c2A AGA | B2G GFG | FED DEF | GAB A2G :|
